!!!!SEGMENT: pl-wtm--r-2548--010_hertz-michal--jak-wam-sie-podoba-no-10.krn
!!!cenid: 18xx:3117
!!!COM: Hertz, Michał
!!!COM-rismid: pe41023359
!!!CDT: 1844/09/28-~1918
!!!CNT: Polish
!!!GTL: Jak wam się podoba
!!!OTL: No. 10
!!!PDT:
!!!AGN:
!!!SMS-siglum: PL-Wtm
!!!SMS-shelfmark: R 2548
!!!SMS-shelfwork: 010 G
!!!SMS-variant:
!!!SMS-altvar:
!!!NIFC-rismid: 1001082244
!!!URL-scan: http://repozytorium.nifc.pl/skany/pl-wtm-nut--r2548
!!!ONB-nifc:
!!!key: E-
!!!OMD: allegro mod.
**kern	**kern	**dynam	**kern	**kern	**text	**dynam	**kern	**text	**dynam
*group3	*group3	*	*group2	*group2	*	*	*group1	*	*
*part5	*part4	*part4	*part3	*part2	*part2	*part2	*part1	*part1	*part1
*staff5	*staff4	*	*staff3	*staff2	*staff2	*	*staff1	*staff1	*
*I"[Piano]	*I"[Piano]	*	*I""Chor	*I""Chor	*	*	*I"Almiens	*	*
*Ipiano	*Ipiano	*	*Imale	*Ifeme	*	*	*Ivox	*	*
*ICklav	*ICklav	*	*ICvox	*ICvox	*	*	*ICvox	*	*
*IGacmp	*IGacmp	*	*IGcoro	*IGcoro	*	*	*IGsolo	*	*
*clefF4	*clefG2	*	*clefF4	*clefG2	*	*	*clefG2	*	*
*k[b-e-a-]	*k[b-e-a-]	*	*k[b-e-a-]	*k[b-e-a-]	*	*	*k[b-e-a-]	*	*
*E-:	*E-:	*	*E-:	*E-:	*	*	*E-:	*	*
*M6/8	*M6/8	*	*M6/8	*M6/8	*	*	*M6/8	*	*
=1	=1	=1	=1	=1	=1	=1	=1	=1	=1
!LO:TX:t=P:problem:all\right:global	!LO:TX:t=P:problem:all\right:global	!	!	!	!	!	!	!	!
(>(<4.GG\ 4.G	4.b-\ (>4.ee- (>4.bb-	ff	2.r	2.r	.	.	2.r	.	.
4BB-\)) 4B-	4b-\ 4dd) 4ff)	.	.	.	.	.	.	.	.
!LO:TX:t=P:problem:all\middle:global	!	!	!	!	!	!	!	!	!
8AA-\ 8A-	8cc\ 8ee- 8ccc	.	.	.	.	.	.	.	.
=2	=2	=2	=2	=2	=2	=2	=2	=2	=2
*	*^	*	*	*	*	*	*	*	*
(>8GG\L 8G	8b-\L (>8ee- (>8bb-	4.ryy	.	2.r	2.r	.	.	2.r	.	.
!	!LO:TX:t=P:problem:all\middle:global	!	!	!	!	!	!	!	!	!
8.BB-\ 8.B-	8b-\J)) 8dd) 8ff)	.	.	.	.	.	.	.	.	.
.	8r	.	.	.	.	.	.	.	.	.
16AAn\Jk) 16An	.	.	.	.	.	.	.	.	.	.
!LO:TX:t=P:problem:8\right	!	!	!	!	!	!	!	!	!	!
(>8.AA-X\L 8.A-X	16r	16ryy	.	.	.	.	.	.	.	.
.	16b-/	16B-\	.	.	.	.	.	.	.	.
.	16f/LL	16f\LL	.	.	.	.	.	.	.	.
16GG\K 16G	16B-/J	16B-\J	.	.	.	.	.	.	.	.
8FF\J) 8F	8B-/J	8B-\J	.	.	.	.	.	.	.	.
*	*v	*v	*	*	*	*	*	*	*	*
=3	=3	=3	=3	=3	=3	=3	=3	=3	=3
!LO:TX:t=P:problem:4\right:global	!	!LO:DY:rj	!	!	!	!	!	!	!
(<4.GG\ (>4.G	(<4.B-/ 4.e- (>4.b-	p	2.r	2.r	.	.	2.r	.	.
4BB-\) 4B-)	4B-/)) 4d 4f	.	.	.	.	.	.	.	.
!LO:TX:t=P:problem:8\left	!	!	!	!	!	!	!	!	!
8AA-\ 8A-	8c\ 8e- 8cc	.	.	.	.	.	.	.	.
=4	=4	=4	=4	=4	=4	=4	=4	=4	=4
*	*^	*	*	*	*	*	*	*	*
8GG\L 8G	(>8B-\L 8e- 8b-	4.ryy	.	2.r	2.r	.	.	4r	.	.
8.BB-\ 8.B-	8B-\J) 8d 8f	.	.	.	.	.	.	.	.	.
.	8r	.	.	.	.	.	.	8r	.	.
16AAn\Jk 16An	.	.	.	.	.	.	.	.	.	.
!	!	!	!	!	!	!	!	!	!	!LO:DY:b
(>8.AA-X\L 8.A-X	16r	16ryy	.	.	.	.	.	8r	.	f
.	16b-/	16B-\ 16b-	.	.	.	.	.	.	.	.
.	16f/LL	16f\LL	.	.	.	.	.	8r	.	.
16GG\K 16G	16B-/J	16B-\J	.	.	.	.	.	.	.	.
8FF\J) 8F	8B-/J	8B-\J	.	.	.	.	.	8B-/	Was	.
*	*v	*v	*	*	*	*	*	*	*	*
!!LO:LB:g=original
=5	=5	=5	=5	=5	=5	=5	=5	=5	=5
!	!	!LO:DY:b:rj	!	!	!	!	!	!	!
[<4.EE-\ [>4.E-	(<8.G/L 8.B-	p	2.r	2.r	.	.	(<8.B-/L	krieg-	.
.	16G/K 16B- 16e-	.	.	.	.	.	16e-/Jk)	.	.
.	8B-/J) 8e- 8g	.	.	.	.	.	8g/	-er	.
!	!	!	!	!	!	!	!LO:TX:t=P:problem:all\middle:global	!	!
4EE-\] 4E-]	(<8e-/L 8g 8b-	.	.	.	.	.	(>8b-\L	der	.
.	8B-/) 8e- 8g	.	.	.	.	.	8g\J)	.	.
8GG'>\ 8G	8B-'</J 8e-	.	.	.	.	.	8e-/	den	.
=6	=6	=6	=6	=6	=6	=6	=6	=6	=6
(>8.AA-\L 8.A-	(>8.c\L 8.e- 8.cc	.	4r	4r	.	.	(8.cc\L	Hirsch	.
16GG\K 16G	16B-\K 16e- 16b-	.	.	.	.	.	16b-\Jk)	.	.
8EE-\J) 8E-	8B-\J) 8e- 8g	.	8r	8r	.	.	8g/	er-	.
!	!	!	!	!	!	!LO:DY:b:rj	!	!	!
(>8EE-\L 8E-	(>8e-\L 8g 8ee-	.	8r	8r	.	f	8ee-\	-leg-	.
8GG\J) 8G	8B-\J) 8e-	.	8r	8r	.	.	8e-/	-te?	.
!	!	!	!LO:TX:t=P:problem:all\middle:global	!LO:TX:t=P:problem:all\middle:global	!	!	!	!	!
8ryy	8r	.	8G\	8B-/ 8e-	Sein	.	8r	.	.
=7	=7	=7	=7	=7	=7	=7	=7	=7	=7
*	*^	*	*	*^	*	*	*	*	*
!	!	!	!LO:DY:rj	!	!	!	!	!	!	!	!
4.BB-/	(<(>8.d/L 8.f	[<4.B-\	f	4BB-/	(<8.d/L 8.f	4.ryy	le-	.	2.r	.	.
.	16e-/K)) 16g	.	<	.	16e-/Jk) 16g	.	.	.	.	.	.
.	8f/J 8a-	.	.	8BB-/	8f/ 8a-	.	-dern	.	.	.	.
(>8EE-\L 8E-	16e-/LL 16g	4B-\]	.	4E-\	(<8g/L	4e-\	Klein	.	.	.	.
.	16e-/	.	.	.	.	.	.	.	.	.	.
8GG\J) 8G	16e-/	.	.	.	8e-/J)	.	.	.	.	.	.
.	16e-/J	.	.	.	.	.	.	.	.	.	.
8r	8b-/J	8B-\	[	8G\	8b-/	8d\	mu	.	.	.	.
!!LO:LB:g=original
=8	=8	=8	=8	=8	=8	=8	=8	=8	=8	=8	=8
!LO:TX:t=P:problem:takty 8-10 niewyraźne - skan ucięty	!	!	!	!	!	!	!	!	!	!	!
4.BB-\	(<8.d/L 8.f	[<4.B-\	.	4BB-/	(<(>8.d/L 8.f	4.ryy	Hon	.	4r	.	.
.	16e-/K 16g	.	.	.	16e-/Jk)) 16g	.	.	.	.	.	.
.	8f/J) 8a-	.	.	8BB-/	8f/ 8a-	.	er	.	8r	.	.
(>8EE-\L 8E-	16e-/LL 16g	4B-\]	.	4E-\	(<8g/L	4e-\	träg<.>!	.	8r	.	.
.	16e-/	.	.	.	.	.	.	.	.	.	.
8GG\J) 8G	16e-/	.	.	.	8e-/J)	.	.	.	8r	.	.
.	16e-/J	.	.	.	.	.	.	.	.	.	.
8r	8b-/J	8B-\	.	8r	8r	8ryy	.	.	8B-/	Ohn	.
*	*v	*v	*	*	*v	*v	*	*	*	*	*
=9	=9	=9	=9	=9	=9	=9	=9	=9	=9
4.EE-\ 4.E-	(<8.G/L 8.B-	.	2.r	2.r	.	.	(<8.B-/L	al-	.
.	16G/K 16B- 16e-	.	.	.	.	.	16e-/Jk)	.	.
.	8B-/J) 8e- 8g	.	.	.	.	.	8g/	-len	.
8.GG\L 8.G	4B-\ 4e- 4g 4b-	.	.	.	.	.	4b-\	Zorn	.
16FF#X\K 16F#X	.	.	.	.	.	.	.	.	.
8FFn\J 8Fn	8d\ 8g 8bn	.	.	.	.	.	8bn\	trag	.
=10	=10	=10	=10	=10	=10	=10	=10	=10	=10
*	*^	*	*	*	*	*	*	*	*
(>8.EE-\L 8.E-	(>8.e-\L 8.g 8.cc	4.ryy	.	2.r	2.r	.	.	(>8.cc\L	an	.
!	!LO:TX:t=P:problem:16\left	!	!	!	!	!	!	!	!	!
16DD\K 16D	16g\K 16bn 16dd	.	.	.	.	.	.	16dd\Jk)	.	.
8CC\J) 8C	8g\J) 8cc 8ee-	.	.	.	.	.	.	8ee-\	das	.
4.AAA;>/ 4.AA	(>4ff;>/	4.f\ 4.cc	.	.	.	.	.	4ff;>\	Hnn,	.
.	8ee-/)	.	.	.	.	.	.	8ee-\	Ein	.
*	*v	*v	*	*	*	*	*	*	*	*
!!LO:PB:g=original
=11	=11	=11	=11	=11	=11	=11	=11	=11	=11
(>8.BBB-\L 8.BB-	(>8.f\L 8.b- 8.dd	.	2.r	2.r	.	.	(>8.dd\L	Helm	.
16EE-\K 16E-	16f\K 16an 16cc	.	.	.	.	.	16cc\Jk)	.	.
8DD\J) 8D	8f\J) 8b-	.	.	.	.	.	8b-\	schmuck	.
!LO:TX:t=P:problem:4\right	!LO:TX:t=P:problem:4\right	!	!	!	!	!	!	!	!
(>4CC\ 4C	(>4g\ 4b- 4ee-	.	.	.	.	.	4ee-\	wars,	.
8EE-\) 8E-	8g\) 8b- 8cc	.	.	.	.	.	8cc\	chó	.
=12	=12	=12	=12	=12	=12	=12	=12	=12	=12
!LO:TX:t=P:problem:4\right	!	!	!	!	!	!	!	!	!
(<4.FF\ (>4.F	(<4.c/ (<4.e- (<4.f (>4.an	.	2.r	2.r	.	.	(>8an/	on	.
!	!	!	!	!	!	!	!LO:TX:t=P:problem:8\right	!	!
.	.	.	.	.	.	.	8.cc\)	.	.
.	.	.	.	.	.	.	16f/	ge-	.
16BBB-/LL) 16BB-)	8B-/) 8d) 8f) 8b-)	.	.	.	.	.	8cc\	-bo-	.
16BBB-/ 16BB-	.	.	.	.	.	.	.	.	.
16BBB-/ 16BB-	8r	.	.	.	.	.	8b-\	-ren,	.
16BBB-/J 16BB-	.	.	.	.	.	.	.	.	.
8BBB-/J 8BB-	8r	.	.	.	.	.	8r	.	.
=13	=13	=13	=13	=13	=13	=13	=13	=13	=13
*	*^	*	*	*	*	*	*	*	*
!	!	!	!LO:DY:rj	!	!	!	!	!	!	!LO:DY:b:rj
(>4D\	(>4.f/ 4.a-X	16B-\LL	p	2.r	2.r	.	.	(<8a-X/L	Dei-	p
.	.	16B-\	.	.	.	.	.	.	.	.
.	.	16B-\	.	.	.	.	.	8g/J)	.	.
.	.	16B-\J	.	.	.	.	.	.	.	.
8BB-/)	.	8B-\J	.	.	.	.	.	8f/	-nes	.
4E-\	4.e-/ 4.g	16B-\LL	.	.	.	.	.	(<8e-/L	Va-	.
.	.	16B-\	.	.	.	.	.	.	.	.
.	.	16B-\	.	.	.	.	.	8d/J)	.	.
.	.	16B-\J	.	.	.	.	.	.	.	.
8BB-/	.	8B-\J	.	.	.	.	.	8c/	-ters	.
=14	=14	=14	=14	=14	=14	=14	=14	=14	=14	=14
(>4F\	4.d/ 4.f	16B-\LL	.	2.r	2.r	.	.	(<8B-/L	Va-	.
.	.	16B-\	.	.	.	.	.	.	.	.
.	.	16B-\	.	.	.	.	.	8c/J)	.	.
.	.	16B-\J	.	.	.	.	.	.	.	.
8BB-/)	.	8B-\J	.	.	.	.	.	8d/	-ter	.
(>4E-\	4.e-/) 4.g	16B-\LL	.	.	.	.	.	8e-/	fück	.
.	.	16B-\	.	.	.	.	.	.	.	.
.	.	16B-\	.	.	.	.	.	8g/	es,	.
.	.	16B-\J	.	.	.	.	.	.	.	.
8BB-/)	.	8B-\J	.	.	.	.	.	8g/	mu	.
!!LO:LB:g=original
=15	=15	=15	=15	=15	=15	=15	=15	=15	=15	=15
(>4D#X\	(>4.f#X/ 4.an	16Bn\LL	.	2.r	2.r	.	.	(<8an/L	dei-	.
.	.	16B\	.	.	.	.	.	.	.	.
.	.	16B\	.	.	.	.	.	8g#X/J)	.	.
.	.	16B\J	.	.	.	.	.	.	.	.
8BBn/)	.	8B\J	.	.	.	.	.	8f#X/	-nen	.
(>4En\	4.en/ 4.g#X	16B\LL	.	.	.	.	.	(<8en/L	Va-	.
.	.	16B\	.	.	.	.	.	.	.	.
.	.	16B\	.	.	.	.	.	8d#X/J)	.	.
.	.	16B\J	.	.	.	.	.	.	.	.
8BB/)	.	8B\J	.	.	.	.	.	8c#X/	-ter	.
=16	=16	=16	=16	=16	=16	=16	=16	=16	=16	=16
(>4F#X\	4.d#X/ 4.f#X	16Bn\LL	.	4r	4r	.	.	(<8Bn/L	Va-	.
.	.	16B\	.	.	.	.	.	.	.	.
.	.	16B\	.	.	.	.	.	8c#X/J)	.	.
.	.	16B\J	.	.	.	.	.	.	.	.
8BBn/)	.	8B\J	.	8r	8r	.	.	8d#X/	-ter	.
(>4En\	4.en/) 4.g#X	16B\LL	.	8r	8r	.	.	8en/	riert	.
.	.	16B\	.	.	.	.	.	.	.	.
.	.	16B\	.	8r	8r	.	.	8g#X/	'es	.
.	.	16B\J	.	.	.	.	.	.	.	.
!	!	!	!	!	!	!	!LO:DY:b:rj	!	!	!
8BB/)	.	8B\J	.	8Bn\	8bn\	Das	f	8r	.	.
=17	=17	=17	=17	=17	=17	=17	=17	=17	=17	=17
!LO:TX:t=P:problem:all\middle:global	!	!	!	!	!	!	!	!	!	!
(>8En\L	(>8c/L 8gn 8b-X	4.ryy	f	(>8En\L	(>8b-X\L	Hern,	.	2.r	.	.
!LO:TX:t=P:problem:8\right	!	!	!	!	!	!	!	!	!	!
8.F\)	8.c/) 8.f 8.an	.	.	8F\J)	8an\J)	.	.	.	.	.
.	.	.	.	16r	16r	.	.	.	.	.
16F\Jk	16d-X/Jk 16a-X	.	.	16F\	16a-X/	das	.	.	.	.
(>8F\L	(>8a-/L 8cc	4d-\ 4a-	.	(>8F\L	(>8cc-X\L	Herzn,	.	.	.	.
!LO:TX:t=P:problem:8\right	!	!	!	!	!	!	!	!	!	!
8G-X\J)	8g-X/J) 8b-	.	.	8G-X\J)	8b-\J)	.	.	.	.	.
8r	8r	8ryy	.	8G-\	8b-\	das	.	.	.	.
=18	=18	=18	=18	=18	=18	=18	=18	=18	=18	=18
(>8F#X\L	(>8dn\L 8an 8ccn	4.ryy	.	(>8F#X\L	(>8ccn\L	wack-	.	4r	.	.
!	!	!	!	!LO:TX:t=P:problem:all\right:global	!	!	!	!	!	!
8.G\)	8.d\) 8.g 8.bn	.	.	8G\J)	8bn\J)	.	.	.	.	.
.	.	.	.	16r	16r	.	.	8r	.	.
16G\Jk	16e-X\Jk 16b-X	.	.	16G\	16b-X\	-ze	.	.	.	.
(>8G\L	(<(>8b-/L 8dd-X	4e-\ 4b-	.	(>8G\L	(>8dd-X\L	Hern	.	8r	.	.
8A-X\J)	8a-X/J)) 8cc	.	.	8A-X\J)	8cc\J)	.	.	8r	.	.
!	!	!	!	!	!	!	!	!	!	!LO:DY:b:rj
8ryy	8r	8ryy	.	8r	8r	.	.	8cc\	Das	f
!!LO:LB:g=original
=19	=19	=19	=19	=19	=19	=19	=19	=19	=19	=19
*	*	*	*	*	*	*	*	*2\right	*	*
!	!	!	!LO:DY:rj	!	!	!	!	!	!	!
8AAn\ 8An	8g-X/ 8cc	8.e-\L	ff	8r	8r	.	.	[>2.ee-\	Horn	.
!	!	!	!	!	!	!	!LO:DY:b:rj	!	!	!
8r	8r	.	.	8r	8r	.	ff	.	.	.
.	.	16e-\K	.	.	.	.	.	.	.	.
!	!	!LO:TX:t=P:problem:8\right	!	!	!	!	!	!	!	!
8r	8r	8e-\J	.	8c\	8cc\	Ze-	.	.	.	.
[<4.AAAn/ [>4.AAn	4r	(>8e-\L	.	(>8e-\L	(>8ee-\L	-nich	.	.	.	.
.	.	8d\	.	8d\J)	8ddn\J)	.	.	.	.	.
.	8r	8d-X\J)	.	8d-X\	8dd-X\	ein	.	.	.	.
*	*v	*v	*	*	*	*	*	*	*	*
=20	=20	=20	=20	=20	=20	=20	=20	=20	=20
4.AAAn/_< 4.AAn_>	8c/L	<	[>4.c\	[>4.cc\	Ding	.	2.ee-\]	.	.
.	(<8c/	.	.	.	.	.	.	.	.
.	8d-X/J)	.	.	.	.	.	.	.	.
4AAA/] 4AA]	(<8dn/L	.	8c\]	8cc\]	.	.	.	.	.
.	8e-/J)	.	8r	8r	.	.	.	.	.
8r	8r	[	8C\	8e-/	in	.	.	.	.
=21	=21	=21	=21	=21	=21	=21	=21	=21	=21
[<4.BBB-/ [>4.BB-	(<8.E-/L 8.G 8.B-	.	(>8BB-\L	(<8B-/L	nich	.	8b-\	.	.
.	.	.	8E-\J)	8e-/J)	.	.	8r	.	.
.	16G/K 16B- 16e-	.	.	.	.	.	.	.	.
.	8B-/J) 8e- 8g	.	16r	16r	.	.	8r	.	.
.	.	.	16G\	16g/	ein	.	.	.	.
4BBB-/] 4BB-]	(<8e-/L 8g 8b-	.	(>8G\L	(>8b-\L	Ding	.	4r	.	.
.	8B-/) 8e- 8g	.	8E-\J)	8g\J)	.	.	.	.	.
8GG\ 8G	8G/J 8B- 8e-	.	8E-\	8e-/	zum	.	8r	.	.
=22	=22	=22	=22	=22	=22	=22	=22	=22	=22
(>8.AA-\L 8.A-	(>8.c\L 8.e- 8.cc	.	(>8A-\L	(>8cc\L	spohr	.	4r	.	.
.	.	.	8G\J)	8b-\J)	.	.	.	.	.
16GG\K 16G	16B-\K 16e- 16b-	.	.	.	.	.	.	.	.
8EE-\J) 8E-	8B-\J) 8e- 8g	.	16r	16r	.	.	8r	.	.
.	.	.	16E-\	16g/	und	.	.	.	.
(>8EE-\L 8E-	(>8e-\L 8g 8ee-	.	4E-\	(>8ee-\L	zern!	.	8r	.	.
!LO:TX:t=P:problem:8\right	!	!	!	!	!	!	!	!	!LO:DY:b:rj
8GG\J) 8G	8B-\J) 8e-	.	.	8e-\J)	.	.	8r	.	p
8r	8r	.	8r	8r	.	.	8e-/	Das	.
!!LO:PB:g=original
=23	=23	=23	=23	=23	=23	=23	=23	=23	=23
*	*^	*	*	*	*	*	*	*	*
!	!	!	!LO:DY:rj	!	!	!	!	!	!	!
4.BB-/	(<8.d/L 8.f	[<4.B-\	p	2.r	2.r	.	.	(<8.f/L	Horn,	.
.	16e-/K 16g	.	.	.	.	.	.	16g/Jk)	.	.
.	8f/J) 8a-	.	.	.	.	.	.	8a-/	das	.
(>8EE-\L 8E-	(>8e-/L 8g	8B-\L]	.	.	.	.	.	(<8g/L	Horn,	.
8GG\J) 8G	8e-/J)	8B-\J	.	.	.	.	.	8e-/J)	.	.
8r	8r	8ryy	.	.	.	.	.	8e-/	das	.
=24	=24	=24	=24	=24	=24	=24	=24	=24	=24	=24
4.BB-/	(<8.d/L 8.f	4.B-\	.	4r	4r	.	.	(<8.f/L	wack-	.
.	16e-/K 16g	.	.	.	.	.	.	16g/Jk)	.	.
.	8f/J) 8a-	.	.	8r	8r	.	.	8a-/	-re	.
!	!	!	!	!	!	!	!LO:DY:b	!	!	!
(>8EE-\L 8E-	(>8e-/L 8g	8B-\L	.	8r	8r	.	f	(<8g/L	Horn,	.
8GG\J) 8G	8e-/J)	8B-\J	.	8r	8r	.	.	8e-/J)	.	.
8r	8r	8ryy	.	8E-\	8e-/	Das	.	8r	.	.
*	*v	*v	*	*	*	*	*	*	*	*
=25	=25	=25	=25	=25	=25	=25	=25	=25	=25
*	*	*	*^	*	*	*	*	*	*
!	!	!LO:DY:rj	!	!	!	!	!	!	!	!
(>8.E-\L	(<8.G/L 8.B-	f	(>8.BB-\L	4.ryy	(<8.B-/L	Horn,	.	2.r	.	.
16G\K	16B-/K 16e-	.	16E-\Jk)	.	16e-/Jk)	.	.	.	.	.
8B-\J)	8e-/J) 8g	.	8G/	.	8g/	das	.	.	.	.
!	!LO:TX:t=P:problem:4\right	!	!	!	!	!	!	!	!	!
(>8G\L	4e-\ 4b-	.	(8G\L	4ryy	4b-\	Horn,	.	.	.	.
8F#X\)	.	.	8F#X\J)	.	.	.	.	.	.	.
!LO:TX:t=P:problem:8\right	!	!	!	!	!	!	!	!	!	!
8Fn\J	8d\ 8g 8bn	.	8G/	8F#\	8bn\	das	.	.	.	.
=26	=26	=26	=26	=26	=26	=26	=26	=26	=26	=26
(>8.E-\L	(>8.c\L 8.g 8.cc	.	(>8.E-\L 8.G	4ryy	(>8.cc\L	wack-	.	2.r	.	.
16D\K	16g\K 16bn 16dd	.	16G\Jk) 16Bn	.	16dd\Jk)	.	.	.	.	.
8C\J) 8c	8g\J) 8cc 8ee-	.	8c/	8c\	8ee-\	-re	.	.	.	.
(>8BB-\L 8B-	(>8f\L 8b-X 8dd 8ff	.	(>8d/L	4B\	(>8ff\L	Horn,	.	.	.	.
8AAn\) 8An	8B-\J) 8d 8f 8b-	.	8B/J)	.	8b-\J)	.	.	.	.	.
8AA-X\J 8A-X	8r	.	8r	8ryy	8r	.	.	.	.	.
*	*	*	*v	*v	*	*	*	*	*	*
!!LO:LB:g=original
=27	=27	=27	=27	=27	=27	=27	=27	=27	=27
*2\right	*	*	*	*	*	*	*	*	*
2.GG;<\ 2.G	2.Bn;>/ 2.d 2.g	.	2.r;<	2.r;>	.	.	8r	.	.
!	!	!LO:DY:rj	!	!	!	!	!	!	!LO:DY:b:rj
.	.	sf	.	.	.	.	8r	.	f
.	.	.	.	.	.	.	8g/	Es	.
.	.	.	.	.	.	.	4ff;>\	ist	.
.	.	.	.	.	.	.	8ee-\	ein	.
=28	=28	=28	=28	=28	=28	=28	=28	=28	=28
!LO:TX:t=P:problem:all\right:global	!	!	!	!	!	!	!	!	!
[<4.AA-\ [>4.A-	[<4.c/ [>4.f	.	4r	4r	.	.	(>4.dd\	Ding	.
.	.	.	8r	8r	.	.	.	.	.
8AA-\] 8A-]	8c/] 8f]	.	8r	8r	.	.	8cc\)	.	.
8r	8r	.	8r	8r	.	.	8r	.	.
8r	8r	.	8F\	8a-/	zu	.	8cc\	zu	.
=29	=29	=29	=29	=29	=29	=29	=29	=29	=29
!	!LO:TX:t=P:problem:4\right	!LO:DY:rj	!	!	!	!	!	!	!
(>8B-\L	4f\ 4a- 4dd	sf	[<4.BB-;</	[>4.a-;>/	Spohr	.	[>4.dd;>\	Spohr	.
8BB-\J)	.	.	.	.	.	.	.	.	.
8r;<	8r;	.	.	.	.	.	.	.	.
8r	8r	.	4BB-/]	4a-/]	.	.	(>8dd\L]	.	.
8r	8r	.	.	.	.	.	8cc\J)	.	.
8BBB-/ 8BB-	8b-\ 8bb-	.	8BB-/	8a-/	und	.	8b-\	und	.
=30	=30	=30	=30	=30	=30	=30	=30	=30	=30
!LO:TX:t=P:problem:all\middle:global	!	!	!	!	!	!	!	!	!
(>8.EE-\L 8.E-	4e-\ 4g 4b- 4ee-	.	4.E-\	4.g/	horn.	.	4.ee-\	horn.	.
16DD\K 16D	.	.	.	.	.	.	.	.	.
8DD-X\J) 8D-X	[<8g\ (>8b- [>8ee- [>8gg	.	.	.	.	.	.	.	.
4CC/ 4C	8g\L] 8cc) 8ee-] 8gg]	.	8r	4r	.	.	4r	.	.
.	8a-\ 8cc 8ee- 8aa-	.	4r	.	.	.	.	.	.
8AAA-/ 8AA-	8cc\J 8ee- 8aa- 8ccc	.	.	8r	.	.	8r	.	.
!!LO:LB:g=original
=31	=31	=31	=31	=31	=31	=31	=31	=31	=31
!	!LO:TX:t=P:problem:8\right	!	!	!	!	!	!	!	!
8.EE-\L 8.E-	8.ee-\L 8.gg 8.bb- 8.eee-	.	2.r	2.r	.	.	2.r	.	.
16EE-\K 16E-	16e-\K 16g 16b- 16ee-	.	.	.	.	.	.	.	.
8EE-\J 8E-	8e-\J 8g 8b- 8ee-	.	.	.	.	.	.	.	.
!	!LO:TX:t=P:problem:8\right	!	!	!	!	!	!	!	!
8EE-\ 8E-	8e-\ 8g 8b- 8ee-	.	.	.	.	.	.	.	.
8r	8r	.	.	.	.	.	.	.	.
8r	8r	.	.	.	.	.	.	.	.
==	==	==	==	==	==	==	==	==	==
*-	*-	*-	*-	*-	*-	*-	*-	*-	*-
!!!system-decoration: g1[{g2}][{g3}]
!!!ENC: Andrzej Gręziak
!!!END: 2021-11-04
!!!EED: Jędrzej Mróz
!!!ESR: 2021-11-06
!!!RDF**kern: > = above
!!!RDF**kern: < = below
